X: 19
T:Merrydale Romp
% Nottingham Music Database
S:Dennis Salter, via PR
M:4/4
L:1/4
K:D
F/2G/2|"D"AF/2A/2 dc/2d/2|BA A2|"D"AF/2A/2 d/2c/2B/2A/2|"Em"GE E2|\
"Em"GF/2G/2 "A7"cc|
"Em"GF/2G/2 "A7"c2|"Em"GE/2G/2 "A7"c/2B/2A/2G/2|"D"BA A2|"D"AF/2A/2 dc/2d/2|\
BA A2|"D"dc/2d/2 "D7"ed|
"G"dB B2|"G"e^d/2e/2 "Gm"=fe/2f/2|"D"fd "B7"A^G/2A/2|"Em"B^A/2B/2 "A7"c=A|\
"D"d=c "D7"BA||
K:G
"G"d2 g3/2f/2|ed d2|"G"d^c/2d/2 e/2d/2=c/2B/2|"Am"cA A2|"Am"cB/2c/2 "D7"AA|\
"Am"A^G/2A/2 "D7"F2|
"Am"cB/2c/2 "D7"f/2e/2d/2c/2|"G"ed dB/2c/2|"G"dB/2d/2 g3/2f/2|ed d2|
"G"dB/2d/2 "G7"gg|"C"ge e2|"C"Az"Cm"^Az|"G"BG d^c/2d/2|"Am"e^d/2e/2 "D7"f=d|\
"G"g3||<end>
<start>
